Yaru++/mimetypes/48/text-scala.svg

<svg id="svg35" height="48" viewBox="0 0 12.7 12.7" width="48" xmlns="http://www.w3.org/2000/svg" xmlns:xlink="http://www.w3.org/1999/xlink">
  <linearGradient id="linearGradient1004" gradientUnits="userSpaceOnUse" x1="344" x2="344" y1="62" y2="106">
    <stop id="stop923" offset="0" stop-color="#fff"/>
    <stop id="stop933" offset=".125" stop-color="#fff" stop-opacity=".098039"/>
    <stop id="stop931" offset=".92500001" stop-color="#fff" stop-opacity=".098039"/>
    <stop id="stop925" offset="1" stop-color="#fff" stop-opacity=".498039"/>
  </linearGradient>
  <clipPath id="clipPath994-93">
    <path id="path996-60" d="m335.73108 62c-8.82418 0-9.77365.90635-9.7304 9.74838v12.25162 12.25162c-.0433 8.84203.90622 9.74838 9.7304 9.74838h16.53919c8.82418 0 9.7304-.90625 9.7304-9.74838v-12.25162-12.25162c0-8.84213-.90622-9.74838-9.7304-9.74838z"/>
  </clipPath>
  <linearGradient id="linearGradient3194" gradientTransform="matrix(.27048312 0 0 .25881223 -86.419089 -15.787591)" gradientUnits="userSpaceOnUse" x1="335.23154" x2="352.27026" y1="61.500046" y2="106">
    <stop id="stop4241" offset="0" stop-color="#e8e8e8"/>
    <stop id="stop4243" offset="1" stop-color="#f5f5f5"/>
  </linearGradient>
  <g id="text130-3" enable-background="new" fill="#888" stroke-width=".048884" transform="scale(.97818798 1.0222984)">
    <path id="path1020" d="m4.255218.12937354c-.6013273 0-1.0748134.013246-1.4644119.075824-.3896012.0625766-.7084088.1799518-.9419385.4028774-.233527.2229259-.3567835.52784006-.4215723.90078796-.0647888.3729482-.0774366.8269934-.0744884 1.4037531v3.2988329 3.3004102c-.00292.5758739.00976 1.0296889.074488 1.4022359.064789.372949.1880453.677863.4215723.900788.2335297.222926.5523373.340302.9419385.402878.3896012.06258.8630846.07582 1.4644119.07582h4.7439577c.60133 0 1.0745637-.01323 1.4633587-.07582.388793-.0626.706627-.180377.939294-.403382.232669-.223006.355195-.527703.420514-.900284.06532-.372578.07924-.825702.07924-1.4022359v-3.3004102-3.3003493c0-.5765338-.01393-1.0296565-.07924-1.4022367-.065318-.3725799-.187847-.67727616-.420516-.90028246-.232667-.2230061-.550501-.3407791-.939293-.403383-.388793-.062604-.8620303-.0758239-1.4633573-.0758239z" fill="#000" opacity=".1"/>
    <path id="path964" d="m4.255383.12937354c-2.2264927 0-2.6436074.2345745-2.631909 2.52299996v3.3002631 3.3003245c-.011712 2.2884249.4054163 2.5229999 2.631909 2.5229999h4.7439947c2.2259393 0 2.6319073-.234549 2.6319073-2.5229999v-3.3003245-3.3002631c0-2.28845136-.405968-2.52299996-2.6319093-2.52299996z" fill="url(#linearGradient3194)"/>
    <path id="path958" d="m4.255383.12937354c-2.2264927 0-2.6436074.2345745-2.631909 2.52299996v3.3002631 3.3003245c-.011712 2.2884249.4054163 2.5229999 2.631909 2.5229999h4.7439947c2.2259393 0 2.6319073-.234549 2.6319073-2.5229999v-3.3003245-3.3002631c0-2.28845136-.405968-2.52299996-2.6319093-2.52299996z" fill="none" opacity=".4" stroke="#000" stroke-width=".264583"/>
    <path id="path990" clip-path="url(#clipPath994-93)" d="m335.73108 62c-8.82418 0-9.77365.90635-9.7304 9.74838v12.25162 12.25162c-.0433 8.84203.90622 9.74838 9.7304 9.74838h16.53919c8.82418 0 9.7304-.90625 9.7304-9.74838v-12.25162-12.25162c0-8.84213-.90622-9.74838-9.7304-9.74838z" fill="none" opacity=".7" stroke="url(#linearGradient1004)" stroke-width="2" transform="matrix(.27048312 0 0 .25881223 -86.419088 -15.787591)"/>
    <g id="g1631-7" enable-background="new" transform="matrix(.05522954 0 0 .0531411 -1.752872 -2.390515)">
      <path id="path10-3-5" d="m103.03059 179.13765v-26.56518l97.40568 17.71012c-.26284 51.3668-19.29682 22.17334-19.29682 22.17334-11.78835-1.53157-61.71793-10.32474-78.10886-13.31828zm97.40568-26.56518-97.40568-17.71012v-26.56519l97.40568 17.71012z" fill="#501616"/>
      <path id="path10-35" d="m200.43627 90.587036-97.40568 17.710124v26.56519l97.40568-17.71013zm0 44.275314-97.40568 17.71012v26.56518l97.40568-17.71012zm0 44.2753-97.40568 17.71013v26.56518l97.40568-17.71012z" fill="#d92b1a"/>
    </g>
  </g>
</svg>

<?xml version="1.0" encoding="UTF-8" standalone="no"?>
<svg
   xmlns:dc="http://purl.org/dc/elements/1.1/"
   xmlns:cc="http://creativecommons.org/ns#"
   xmlns:rdf="http://www.w3.org/1999/02/22-rdf-syntax-ns#"
   xmlns:svg="http://www.w3.org/2000/svg"
   xmlns="http://www.w3.org/2000/svg"
   xmlns:xlink="http://www.w3.org/1999/xlink"
   xmlns:sodipodi="http://sodipodi.sourceforge.net/DTD/sodipodi-0.dtd"
   xmlns:inkscape="http://www.inkscape.org/namespaces/inkscape"
   height="48"
   viewBox="0 0 12.7 12.7"
   width="48"
   version="1.1"
   id="svg35"
   sodipodi:docname="8.svg"
   inkscape:version="0.92.5 (2060ec1f9f, 2020-04-08)">
  <metadata
     id="metadata41">
    <rdf:RDF>
      <cc:Work
         rdf:about="">
        <dc:format>image/svg+xml</dc:format>
        <dc:type
           rdf:resource="http://purl.org/dc/dcmitype/StillImage" />
        <dc:title></dc:title>
      </cc:Work>
    </rdf:RDF>
  </metadata>
  <defs
     id="defs39">
    <clipPath
       clipPathUnits="userSpaceOnUse"
       id="clipPath994">
      <path
         style="color:#000000;display:inline;overflow:visible;visibility:visible;fill:#cdcdcd;fill-opacity:1;fill-rule:nonzero;stroke:none;stroke-width:2;stroke-miterlimit:4;stroke-dasharray:none;stroke-opacity:1;marker:none;enable-background:accumulate"
         d="m 335.73108,62 c -8.82418,0 -9.77365,0.90635 -9.7304,9.74838 V 84 96.25162 c -0.0433,8.84203 0.90622,9.74838 9.7304,9.74838 h 16.53919 c 8.82418,0 9.7304,-0.90625 9.7304,-9.74838 V 84 71.74838 C 362.00067,62.90625 361.09445,62 352.27027,62 Z"
         id="path996"
         inkscape:connector-curvature="0"
         sodipodi:nodetypes="scccssscsss" />
    </clipPath>
    <clipPath
       clipPathUnits="userSpaceOnUse"
       id="clipPath994-3">
      <path
         style="color:#000000;display:inline;overflow:visible;visibility:visible;fill:#cdcdcd;fill-opacity:1;fill-rule:nonzero;stroke:none;stroke-width:2;stroke-miterlimit:4;stroke-dasharray:none;stroke-opacity:1;marker:none;enable-background:accumulate"
         d="m 335.73108,62 c -8.82418,0 -9.77365,0.90635 -9.7304,9.74838 V 84 96.25162 c -0.0433,8.84203 0.90622,9.74838 9.7304,9.74838 h 16.53919 c 8.82418,0 9.7304,-0.90625 9.7304,-9.74838 V 84 71.74838 C 362.00067,62.90625 361.09445,62 352.27027,62 Z"
         id="path996-6"
         inkscape:connector-curvature="0"
         sodipodi:nodetypes="scccssscsss" />
    </clipPath>
    <clipPath
       clipPathUnits="userSpaceOnUse"
       id="clipPath994-36">
      <path
         style="color:#000000;display:inline;overflow:visible;visibility:visible;fill:#cdcdcd;fill-opacity:1;fill-rule:nonzero;stroke:none;stroke-width:2;stroke-miterlimit:4;stroke-dasharray:none;stroke-opacity:1;marker:none;enable-background:accumulate"
         d="m 335.73108,62 c -8.82418,0 -9.77365,0.90635 -9.7304,9.74838 V 84 96.25162 c -0.0433,8.84203 0.90622,9.74838 9.7304,9.74838 h 16.53919 c 8.82418,0 9.7304,-0.90625 9.7304,-9.74838 V 84 71.74838 C 362.00067,62.90625 361.09445,62 352.27027,62 Z"
         id="path996-7"
         inkscape:connector-curvature="0"
         sodipodi:nodetypes="scccssscsss" />
    </clipPath>
    <clipPath
       clipPathUnits="userSpaceOnUse"
       id="clipPath994-35">
      <path
         style="color:#000000;display:inline;overflow:visible;visibility:visible;fill:#cdcdcd;fill-opacity:1;fill-rule:nonzero;stroke:none;stroke-width:2;stroke-miterlimit:4;stroke-dasharray:none;stroke-opacity:1;marker:none;enable-background:accumulate"
         d="m 335.73108,62 c -8.82418,0 -9.77365,0.90635 -9.7304,9.74838 V 84 96.25162 c -0.0433,8.84203 0.90622,9.74838 9.7304,9.74838 h 16.53919 c 8.82418,0 9.7304,-0.90625 9.7304,-9.74838 V 84 71.74838 C 362.00067,62.90625 361.09445,62 352.27027,62 Z"
         id="path996-62"
         inkscape:connector-curvature="0"
         sodipodi:nodetypes="scccssscsss" />
    </clipPath>
    <clipPath
       clipPathUnits="userSpaceOnUse"
       id="clipPath994-9">
      <path
         style="color:#000000;display:inline;overflow:visible;visibility:visible;fill:#cdcdcd;fill-opacity:1;fill-rule:nonzero;stroke:none;stroke-width:2;stroke-miterlimit:4;stroke-dasharray:none;stroke-opacity:1;marker:none;enable-background:accumulate"
         d="m 335.73108,62 c -8.82418,0 -9.77365,0.90635 -9.7304,9.74838 V 84 96.25162 c -0.0433,8.84203 0.90622,9.74838 9.7304,9.74838 h 16.53919 c 8.82418,0 9.7304,-0.90625 9.7304,-9.74838 V 84 71.74838 C 362.00067,62.90625 361.09445,62 352.27027,62 Z"
         id="path996-1"
         inkscape:connector-curvature="0"
         sodipodi:nodetypes="scccssscsss" />
    </clipPath>
    <clipPath
       clipPathUnits="userSpaceOnUse"
       id="clipPath994-2">
      <path
         style="color:#000000;display:inline;overflow:visible;visibility:visible;fill:#cdcdcd;fill-opacity:1;fill-rule:nonzero;stroke:none;stroke-width:2;stroke-miterlimit:4;stroke-dasharray:none;stroke-opacity:1;marker:none;enable-background:accumulate"
         d="m 335.73108,62 c -8.82418,0 -9.77365,0.90635 -9.7304,9.74838 V 84 96.25162 c -0.0433,8.84203 0.90622,9.74838 9.7304,9.74838 h 16.53919 c 8.82418,0 9.7304,-0.90625 9.7304,-9.74838 V 84 71.74838 C 362.00067,62.90625 361.09445,62 352.27027,62 Z"
         id="path996-70"
         inkscape:connector-curvature="0"
         sodipodi:nodetypes="scccssscsss" />
    </clipPath>
    <linearGradient
       inkscape:collect="always"
       xlink:href="#linearGradient927"
       id="linearGradient1004"
       x1="344"
       y1="62"
       x2="344"
       y2="106"
       gradientUnits="userSpaceOnUse" />
    <linearGradient
       inkscape:collect="always"
       id="linearGradient927">
      <stop
         style="stop-color:#ffffff;stop-opacity:1;"
         offset="0"
         id="stop923" />
      <stop
         id="stop933"
         offset="0.125"
         style="stop-color:#ffffff;stop-opacity:0.09803922" />
      <stop
         id="stop931"
         offset="0.92500001"
         style="stop-color:#ffffff;stop-opacity:0.09803922" />
      <stop
         style="stop-color:#ffffff;stop-opacity:0.49803922"
         offset="1"
         id="stop925" />
    </linearGradient>
    <clipPath
       clipPathUnits="userSpaceOnUse"
       id="clipPath994-93">
      <path
         style="color:#000000;display:inline;overflow:visible;visibility:visible;fill:#cdcdcd;fill-opacity:1;fill-rule:nonzero;stroke:none;stroke-width:2;stroke-miterlimit:4;stroke-dasharray:none;stroke-opacity:1;marker:none;enable-background:accumulate"
         d="m 335.73108,62 c -8.82418,0 -9.77365,0.90635 -9.7304,9.74838 V 84 96.25162 c -0.0433,8.84203 0.90622,9.74838 9.7304,9.74838 h 16.53919 c 8.82418,0 9.7304,-0.90625 9.7304,-9.74838 V 84 71.74838 C 362.00067,62.90625 361.09445,62 352.27027,62 Z"
         id="path996-60"
         inkscape:connector-curvature="0"
         sodipodi:nodetypes="scccssscsss" />
    </clipPath>
    <linearGradient
       gradientTransform="matrix(0.27048312,0,0,0.25881223,-86.419089,-15.787591)"
       inkscape:collect="always"
       xlink:href="#linearGradient4245"
       id="linearGradient3194"
       x1="335.23154"
       y1="61.500046"
       x2="352.27026"
       y2="106"
       gradientUnits="userSpaceOnUse" />
    <linearGradient
       id="linearGradient4245"
       inkscape:collect="always">
      <stop
         id="stop4241"
         offset="0"
         style="stop-color:#e8e8e8;stop-opacity:1" />
      <stop
         id="stop4243"
         offset="1"
         style="stop-color:#f5f5f5;stop-opacity:1" />
    </linearGradient>
  </defs>
  <sodipodi:namedview
     pagecolor="#ffffff"
     bordercolor="#666666"
     borderopacity="1"
     objecttolerance="10"
     gridtolerance="10"
     guidetolerance="10"
     inkscape:pageopacity="0"
     inkscape:pageshadow="2"
     inkscape:window-width="1920"
     inkscape:window-height="1016"
     id="namedview37"
     showgrid="false"
     inkscape:zoom="4.9166667"
     inkscape:cx="-53.9591"
     inkscape:cy="24"
     inkscape:window-x="0"
     inkscape:window-y="27"
     inkscape:window-maximized="1"
     inkscape:current-layer="text130-3" />
  <linearGradient
     id="a"
     gradientUnits="userSpaceOnUse"
     x1="344"
     x2="344"
     y1="62"
     y2="106">
    <stop
       offset="0"
       stop-color="#fff"
       id="stop2" />
    <stop
       offset=".125"
       stop-color="#fff"
       stop-opacity=".098039"
       id="stop4" />
    <stop
       offset=".92500001"
       stop-color="#fff"
       stop-opacity=".098039"
       id="stop6" />
    <stop
       offset="1"
       stop-color="#fff"
       stop-opacity=".498039"
       id="stop8" />
  </linearGradient>
  <clipPath
     id="b">
    <path
       d="m335.73108 62c-8.82418 0-9.77365.90635-9.7304 9.74838v12.25162 12.25162c-.0433 8.84203.90622 9.74838 9.7304 9.74838h16.53919c8.82418 0 9.7304-.90625 9.7304-9.74838v-12.25162-12.25162c0-8.84213-.90622-9.74838-9.7304-9.74838z"
       id="path11" />
  </clipPath>
  <linearGradient
     id="c"
     gradientTransform="matrix(0 -.02997233 .02997147 0 -3.039659 297.92607)"
     gradientUnits="userSpaceOnUse"
     x1="459.03448"
     x2="35.310345"
     y1="419.23337"
     y2="207.36522">
    <stop
       offset="0"
       stop-color="#f2f2f2"
       id="stop14" />
    <stop
       offset="1"
       stop-color="#f9f9f9"
       id="stop16" />
  </linearGradient>
  <g
     aria-label="iso"
     transform="scale(0.97818798,1.0222984)"
     style="font-style:normal;font-weight:normal;font-size:1.99897027px;line-height:1.25;font-family:sans-serif;letter-spacing:0px;word-spacing:0px;display:inline;opacity:1;fill:#888888;fill-opacity:1;stroke:none;stroke-width:0.04888422;enable-background:new"
     id="text130-3">
    <flowRoot
       xml:space="preserve"
       id="flowRoot930"
       style="fill:black;fill-opacity:1;stroke:none;font-family:sans-serif;font-style:normal;font-weight:normal;font-size:40px;line-height:1.25;letter-spacing:0px;word-spacing:0px"><flowRegion
         id="flowRegion932"><rect
           id="rect934"
           width="115.11864"
           height="97.220337"
           x="-21.152542"
           y="-27.864407" /></flowRegion><flowPara
         id="flowPara936"></flowPara></flowRoot>    <path
       style="color:#000000;font-style:normal;font-variant:normal;font-weight:normal;font-stretch:normal;font-size:medium;line-height:normal;font-family:sans-serif;font-variant-ligatures:normal;font-variant-position:normal;font-variant-caps:normal;font-variant-numeric:normal;font-variant-alternates:normal;font-feature-settings:normal;text-indent:0;text-align:start;text-decoration:none;text-decoration-line:none;text-decoration-style:solid;text-decoration-color:#000000;letter-spacing:normal;word-spacing:normal;text-transform:none;writing-mode:lr-tb;direction:ltr;text-orientation:mixed;dominant-baseline:auto;baseline-shift:baseline;text-anchor:start;white-space:normal;shape-padding:0;clip-rule:nonzero;display:inline;overflow:visible;visibility:visible;opacity:0.1;isolation:auto;mix-blend-mode:normal;color-interpolation:sRGB;color-interpolation-filters:linearRGB;solid-color:#000000;solid-opacity:1;vector-effect:none;fill:#000000;fill-opacity:1;fill-rule:nonzero;stroke:none;stroke-width:0.52916664;stroke-linecap:butt;stroke-linejoin:miter;stroke-miterlimit:4;stroke-dasharray:none;stroke-dashoffset:0;stroke-opacity:1;marker:none;color-rendering:auto;image-rendering:auto;shape-rendering:auto;text-rendering:auto;enable-background:accumulate"
       d="m 4.255218,0.12937354 c -0.6013273,0 -1.0748134,0.013246 -1.4644119,0.075824 C 2.4012049,0.26777414 2.0823973,0.38514934 1.8488676,0.60807494 1.6153406,0.83100084 1.4920841,1.135915 1.4272953,1.5088629 1.3625065,1.8818111 1.3498587,2.3358563 1.3528069,2.912616 v 3.2988329 3.3004102 c -0.00292,0.5758739 0.00976,1.0296889 0.074488,1.4022359 0.064789,0.372949 0.1880453,0.677863 0.4215723,0.900788 0.2335297,0.222926 0.5523373,0.340302 0.9419385,0.402878 0.3896012,0.06258 0.8630846,0.07582 1.4644119,0.07582 h 4.7439577 c 0.60133,0 1.0745637,-0.01323 1.4633587,-0.07582 0.388793,-0.0626 0.706627,-0.180377 0.939294,-0.403382 0.232669,-0.223006 0.355195,-0.527703 0.420514,-0.900284 0.06532,-0.372578 0.07924,-0.825702 0.07924,-1.4022359 V 6.2114489 2.9110996 c 0,-0.5765338 -0.01393,-1.0296565 -0.07924,-1.4022367 C 11.757024,1.136283 11.634495,0.83158674 11.401826,0.60858044 11.169159,0.38557434 10.851325,0.26780134 10.462533,0.20519744 10.07374,0.14259344 9.6005027,0.12937354 8.9991757,0.12937354 Z"
       id="path1020"
       inkscape:connector-curvature="0"
       sodipodi:nodetypes="sccsccccccsscccscsccsss" />
    <path
       style="color:#000000;display:inline;overflow:visible;visibility:visible;fill:url(#linearGradient3194);fill-opacity:1;fill-rule:nonzero;stroke:none;stroke-width:0.26458332;marker:none;enable-background:accumulate"
       d="m 4.255383,0.12937354 c -2.2264927,0 -2.6436074,0.2345745 -2.631909,2.52299996 V 5.9526366 9.2529611 C 1.611762,11.541386 2.0288903,11.775961 4.255383,11.775961 h 4.7439947 c 2.2259393,0 2.6319073,-0.234549 2.6319073,-2.5229999 V 5.9526366 2.6523735 c 0,-2.28845136 -0.405968,-2.52299996 -2.6319093,-2.52299996 z"
       id="path964"
       inkscape:connector-curvature="0"
       sodipodi:nodetypes="scccssscsss" />
    <path
       style="color:#000000;display:inline;overflow:visible;visibility:visible;opacity:0.4;fill:none;fill-opacity:1;fill-rule:nonzero;stroke:#000000;stroke-width:0.26458332;stroke-miterlimit:4;stroke-dasharray:none;stroke-opacity:1;marker:none;enable-background:accumulate"
       d="m 4.255383,0.12937354 c -2.2264927,0 -2.6436074,0.2345745 -2.631909,2.52299996 V 5.9526366 9.2529611 C 1.611762,11.541386 2.0288903,11.775961 4.255383,11.775961 h 4.7439947 c 2.2259393,0 2.6319073,-0.234549 2.6319073,-2.5229999 V 5.9526366 2.6523735 c 0,-2.28845136 -0.405968,-2.52299996 -2.6319093,-2.52299996 z"
       id="path958"
       inkscape:connector-curvature="0"
       sodipodi:nodetypes="scccssscsss" />
    <path
       transform="matrix(0.27048312,0,0,0.25881223,-86.419088,-15.787591)"
       sodipodi:nodetypes="scccssscsss"
       inkscape:connector-curvature="0"
       id="path990"
       d="m 335.73108,62 c -8.82418,0 -9.77365,0.90635 -9.7304,9.74838 V 84 96.25162 c -0.0433,8.84203 0.90622,9.74838 9.7304,9.74838 h 16.53919 c 8.82418,0 9.7304,-0.90625 9.7304,-9.74838 V 84 71.74838 C 362.00067,62.90625 361.09445,62 352.27027,62 Z"
       style="color:#000000;display:inline;overflow:visible;visibility:visible;opacity:0.7;fill:none;fill-opacity:1;fill-rule:nonzero;stroke:url(#linearGradient1004);stroke-width:2;stroke-miterlimit:4;stroke-dasharray:none;stroke-opacity:1;marker:none;enable-background:accumulate"
       clip-path="url(#clipPath994-93)" />
    <g
       transform="matrix(0.05522954,0,0,0.0531411,-1.752872,-2.3905151)"
       style="display:inline;enable-background:new"
       id="g1631-7">
      <path
         inkscape:connector-curvature="0"
         d="m 103.03059,179.13765 v -26.56518 l 97.40568,17.71012 c -0.26284,51.3668 -19.29682,22.17334 -19.29682,22.17334 -11.78835,-1.53157 -61.71793,-10.32474 -78.10886,-13.31828 z m 97.40568,-26.56518 -97.40568,-17.71012 v -26.56519 l 97.40568,17.71012 z"
         style="opacity:1;fill:#501616;fill-opacity:1;stroke:none;stroke-width:4.42753077"
         id="path10-3-5"
         sodipodi:nodetypes="cccscccccc" />
      <path
         inkscape:connector-curvature="0"
         d="m 200.43627,90.587036 -97.40568,17.710124 v 26.56519 l 97.40568,-17.71013 z m 0,44.275314 -97.40568,17.71012 v 26.56518 l 97.40568,-17.71012 z m 0,44.2753 -97.40568,17.71013 v 26.56518 l 97.40568,-17.71012 z"
         style="opacity:1;fill:#d92b1a;fill-opacity:1;stroke:none;stroke-width:4.42753077"
         id="path10-35" />
    </g>
  </g>
</svg>
